dist/svg/indicator-1.svg

<svg width="16" height="16" viewBox="0 0 16 16" fill="rgb(34, 34, 34)" xmlns="http://www.w3.org/2000/svg"><title>indicator-1</title><path d="M12.97 8.43001L11.77 8.33001C11.77 8.22001 11.78 8.11001 11.78 8.00001C11.78 7.89001 11.78 7.78001 11.77 7.67001L12.97 7.57001C12.98 7.71001 12.99 7.86001 12.99 8.00001C12.99 8.14001 12.99 8.29001 12.97 8.43001ZM12.52 5.89001L11.43 6.40001C11.34 6.20001 11.23 6.01001 11.1 5.83001L12.08 5.14001C12.25 5.38001 12.39 5.63001 12.52 5.89001ZM10.86 3.91001L10.17 4.89001C9.98999 4.76001 9.79999 4.65001 9.59999 4.56001L10.11 3.47001C10.37 3.59001 10.63 3.74001 10.86 3.91001ZM8.43999 3.03001L8.33999 4.23001C8.22999 4.23001 8.11999 4.22001 8.00999 4.22001C7.89999 4.22001 7.78999 4.22001 7.67999 4.23001L7.57999 3.03001C7.71999 3.02001 7.86999 3.01001 8.00999 3.01001C8.14999 3.01001 8.29999 3.01001 8.43999 3.03001ZM5.89999 3.48001L6.40999 4.57001C6.20999 4.66001 6.01999 4.77001 5.83999 4.90001L5.14999 3.92001C5.38999 3.75001 5.63999 3.61001 5.89999 3.48001ZM3.91999 5.14001L4.89999 5.83001C4.76999 6.01001 4.65999 6.20001 4.56999 6.40001L3.47999 5.89001C3.59999 5.63001 3.74999 5.37001 3.91999 5.14001ZM3.03999 7.56001C3.02999 7.70001 3.01999 7.85001 3.01999 7.99001C3.01999 8.13001 3.01999 8.28001 3.03999 8.42001L4.23999 8.32001C4.23999 8.21001 4.22999 8.10001 4.22999 7.99001C4.22999 7.88001 4.22999 7.77001 4.23999 7.66001L3.03999 7.56001ZM3.48999 10.1L4.57999 9.59001C4.66999 9.79001 4.77999 9.98001 4.90999 10.16L3.92999 10.85C3.75999 10.61 3.61999 10.36 3.48999 10.1ZM5.14999 12.08L5.83999 11.1C6.01999 11.23 6.20999 11.34 6.40999 11.43L5.89999 12.52C5.63999 12.4 5.37999 12.25 5.14999 12.08ZM7.56999 12.96L7.66999 11.76C7.77999 11.76 7.88999 11.77 7.99999 11.77C8.10999 11.77 8.21999 11.77 8.32999 11.76L8.42999 12.96C8.28999 12.97 8.13999 12.98 7.99999 12.98C7.85999 12.98 7.70999 12.98 7.56999 12.96ZM10.11 12.51L9.59999 11.42C9.79999 11.33 9.98999 11.22 10.17 11.09L10.86 12.07C10.62 12.24 10.37 12.38 10.11 12.51ZM12.09 10.85L11.11 10.16C11.24 9.98001 11.35 9.79001 11.44 9.59001L12.53 10.1C12.41 10.36 12.26 10.62 12.09 10.85Z" fill="rgb(34, 34, 34)" fill-opacity="1.00"/></svg>

<!-- Generated by Trend Micro Style Portal -->
<svg version="1.1" xmlns="http://www.w3.org/2000/svg" width="16" height="16" viewBox="0 0 16 16">
  <title>indicator-1</title>
  <path fill="rgb(34,34,34)" d="M12.97 8.43l-1.2-0.1c0-0.11 0.010-0.22 0.010-0.33s0-0.22-0.010-0.33l1.2-0.1c0.010 0.14 0.020 0.29 0.020 0.43s0 0.29-0.020 0.43zM12.52 5.89l-1.090 0.51c-0.090-0.2-0.2-0.39-0.33-0.57l0.98-0.69c0.17 0.24 0.31 0.49 0.44 0.75zM10.86 3.91l-0.69 0.98c-0.18-0.13-0.37-0.24-0.57-0.33l0.51-1.090c0.26 0.12 0.52 0.27 0.75 0.44zM8.44 3.030l-0.1 1.2c-0.11 0-0.22-0.010-0.33-0.010s-0.22 0-0.33 0.010l-0.1-1.2c0.14-0.010 0.29-0.020 0.43-0.020s0.29 0 0.43 0.020zM5.9 3.48l0.51 1.090c-0.2 0.090-0.39 0.2-0.57 0.33l-0.69-0.98c0.24-0.17 0.49-0.31 0.75-0.44zM3.92 5.14l0.98 0.69c-0.13 0.18-0.24 0.37-0.33 0.57l-1.090-0.51c0.12-0.26 0.27-0.52 0.44-0.75zM3.040 7.56c-0.010 0.14-0.020 0.29-0.020 0.43s0 0.29 0.020 0.43l1.2-0.1c0-0.11-0.010-0.22-0.010-0.33s0-0.22 0.010-0.33l-1.2-0.1zM3.49 10.1l1.090-0.51c0.090 0.2 0.2 0.39 0.33 0.57l-0.98 0.69c-0.17-0.24-0.31-0.49-0.44-0.75zM5.15 12.080l0.69-0.98c0.18 0.13 0.37 0.24 0.57 0.33l-0.51 1.090c-0.26-0.12-0.52-0.27-0.75-0.44zM7.57 12.96l0.1-1.2c0.11 0 0.22 0.010 0.33 0.010s0.22 0 0.33-0.010l0.1 1.2c-0.14 0.010-0.29 0.020-0.43 0.020s-0.29 0-0.43-0.020zM10.11 12.51l-0.51-1.090c0.2-0.090 0.39-0.2 0.57-0.33l0.69 0.98c-0.24 0.17-0.49 0.31-0.75 0.44zM12.090 10.85l-0.98-0.69c0.13-0.18 0.24-0.37 0.33-0.57l1.090 0.51c-0.12 0.26-0.27 0.52-0.44 0.75z"></path>
</svg>
